!!!COM:	Bach, Johann Sebastian
!!!CDT:	1685/02/21/-1750/07/28/
!!!OTL@@DE:	Ach Gott, vom Himmel sieh darein
!!!OTL@EN:	Oh God, look down from Heaven
!!!SCT:	BWV 2/6
!!!PC#:	262
!!!OPR: Cantata BWV 2, Ach Gott, vom Himmel sieh darein
!!!hymn: Erfurt, 1524
!!!AGN:	chorale
**kern	**kern	**kern	**kern
*ICvox	*ICvox	*ICvox	*ICvox
*Ibass	*Itenor	*Ialto	*Isoprn
*I"Bass	*I"Tenor	*I"Alto	*I"Soprano
*>[A,A,B]	*>[A,A,B]	*>[A,A,B]	*>[A,A,B]
*>norep[A,B]	*>norep[A,B]	*>norep[A,B]	*>norep[A,B]
*>A	*>A	*>A	*>A
*	*oclefC4	*oclefC3	*oclefC1
*clefF4	*clefGv2	*clefG2	*clefG2
*k[b-]	*k[b-]	*k[b-]	*k[b-]
*g:dor	*g:dor	*g:dor	*g:dor
*M4/4	*M4/4	*M4/4	*M4/4
*met(c)	*met(c)	*met(c)	*met(c)
*MM100	*MM100	*MM100	*MM100
4D	4d	4f#	4a
=1	=1	=1	=1
4G	4d	4g	4b-
4A	4c	4f#	4a
4B-	4d	4g	4g
8AL	4g	4b-	4dd
8GJ	.	.	.
=2	=2	=2	=2
4F#	4d	4a	8ddL
.	.	.	8ccJ
4G	4d	4g	4b-
4D;	4d;	4f#;	4a;
4C	4e-	4a-	4cc
=3	=3	=3	=3
4C#	4enX	4g	4b-
4D	8dL	4f#	4anX
.	8cJ	.	.
4EnX	4B-	4c#	4g
4F#	4A	4d	4cc
=4	=4	=4	=4
4G	4G	2d	4b-
4D	8F#L	.	4a
.	8cJ	.	.
4GG;	4B-;	4d;	4g;
=:|!	=:|!	=:|!	=:|!
*>B	*>B	*>B	*>B
4G	4B-	4d	4g
=5	=5	=5	=5
4C#	4A	4e	4a
4D	4A	4d	4f
8AL	4A	4c#	4e
8GJ	.	.	.
8FL	4A	4d	8dL
8EJ	.	.	8eJ
=6	=6	=6	=6
8DL	4A	4d	4f
8CnXJ	.	.	.
4BB-	4d	4d	4g
4AA;	4c#;	4e;	4a;
4D	4A	8dL	4f
.	.	8cJ	.
=7	=7	=7	=7
4E-	4G	8B-L	8gL
.	.	8cJ	8aJ
8DL	8FL	4d	4b-
8EJ	8GJ	.	.
8FL	8AL	4c	4a
8E-J	8GJ	.	.
8DL	4F#	4d	4b-
8CJ	.	.	.
=8	=8	=8	=8
8BB-L	8GL	8dL	4g
8CJ	8cJ	8e-J	.
4D	4A	4d	4f#
4GG;	4B-;	4d;	4g;
4G	4B-	4d	4g
=9	=9	=9	=9
4F#	4A	4d	4dd
8GL	4G	4d	4b-
8FJ	.	.	.
8E-L	4G	4e-	4cc
8DJ	.	.	.
8CL	4G	4fnX	4dd
8BBJ	.	.	.
=10	=10	=10	=10
4C	4G	4e-	4cc
4GG	4G	4d	4b-X
2AA	8GL	8c#L	2a
.	8FJ	8d	.
.	4EnX	8d	.
.	.	8c#J	.
=11	=11	=11	=11
2.D;	2.F#;	2.d;	2.a;
==	==	==	==
*-	*-	*-	*-
!!!YOR1: 371 vierstimmige Choralges&auml;nge von Johann Sebastian Bach, 
!!!YOR2: 4th ed. by Alfred D&ouml;rffel (Leipzig: Breitkopf und H&auml;rtel, 
!!!YOR2: c.1875). 178 pp. Plate "V.A.10".  reprint: J.S. Bach, 371 Four-Part 
!!!YOR4: Chorales (New York: Associated Music Publishers, Inc., c.1940).
!!!SMS: B&H, 4th ed, Alfred D&ouml;rffel, c.1875, plate V.A.10
!!!PC#2: 5 (Budapest/Imre, 1982)
!!!EED:  Craig Stuart Sapp
!!!EEV:  2009/05/22
